svg/u1f3a1.svg

<svg viewBox="0 0 128 128" xmlns="http://www.w3.org/2000/svg">
  <path d="M58.48,3.85c-1.56,0-1.83,1.63-2.04,2.78s-1.59,8.26-1.59,8.26l11.86,2.52l6.15-2.93 c0,0-1.03-7.11-1.23-8.33c-0.2-1.22-0.61-2.17-2.11-2.24C68.02,3.85,58.48,3.85,58.48,3.85z" fill="#FC2B26"/>
  <path d="M54.27,17.95c-0.21,1.49,1.18,2.77,2.07,2.81c0.89,0.03,13.97,0.15,15.05,0.1 c1.11-0.06,2.28-0.89,2.05-2.44c-0.25-1.68-0.61-3.93-0.61-3.93l-17.93,0.02C54.91,14.51,54.43,16.8,54.27,17.95z" fill="#DA0A26"/>
  <path d="M92.58,19.27c-1.58,0-1.85,1.63-2.06,2.78c-0.21,1.15-1.61,8.26-1.61,8.26l11.96,2.52l6.2-2.93 c0,0-1.04-7.11-1.24-8.33c-0.21-1.22-0.62-2.17-2.12-2.24S92.58,19.27,92.58,19.27z" fill="#FF8E05"/>
  <path d="M88.34,33.38c-0.21,1.49,1.19,2.77,2.09,2.81c0.9,0.03,14.09,0.15,15.18,0.1 c1.12-0.06,2.3-0.89,2.06-2.44c-0.25-1.68-0.61-3.93-0.61-3.93l-18.08,0.02C88.98,29.94,88.5,32.23,88.34,33.38z" fill="#FF4C1C"/>
  <path d="M106.23,53.35c-1.58,0-1.85,1.63-2.06,2.78c-0.21,1.15-1.61,8.26-1.61,8.26l11.96,2.52l6.2-2.93 c0,0-1.04-7.11-1.24-8.33c-0.21-1.22-0.62-2.17-2.12-2.24C115.85,53.36,106.23,53.35,106.23,53.35z" fill="#FFD61C"/>
  <path d="M101.99,67.46c-0.21,1.49,1.19,2.77,2.09,2.81s14.09,0.15,15.18,0.1c1.12-0.06,2.3-0.89,2.06-2.44 c-0.25-1.68-0.61-3.93-0.61-3.93l-18.08,0.02C102.63,64.01,102.15,66.31,101.99,67.46z" fill="#FFA42D"/>
  <path d="M91.36,88.06c-1.58,0-1.85,1.63-2.06,2.78C89.1,92,87.7,99.1,87.7,99.1l11.96,2.52l6.2-2.93 c0,0-1.04-7.11-1.24-8.33c-0.21-1.22-0.62-2.17-2.12-2.24C100.98,88.06,91.36,88.06,91.36,88.06z" fill="#02AD41"/>
  <path d="M87.12,102.17c-0.21,1.49,1.19,2.77,2.09,2.81s14.09,0.15,15.18,0.1c1.12-0.06,2.3-0.89,2.06-2.44 c-0.25-1.68-0.61-3.93-0.61-3.93l-18.08,0.02C87.76,98.72,87.28,101.02,87.12,102.17z" fill="#2F7C31"/>
  <path d="M58.68,98.34c-1.58,0-1.85,1.63-2.06,2.78s-1.61,8.26-1.61,8.26l11.96,2.52l6.2-2.93 c0,0-1.04-7.11-1.24-8.33s-0.62-2.17-2.12-2.24C68.3,98.34,58.68,98.34,58.68,98.34z" fill="#69A5AD"/>
  <path d="M54.43,112.45c-0.21,1.49,1.19,2.77,2.09,2.81s14.09,0.15,15.18,0.1c1.12-0.06,2.3-0.89,2.06-2.44 c-0.25-1.68-0.61-3.93-0.61-3.93L55.08,109C55.08,109,54.59,111.3,54.43,112.45z" fill="#41727A"/>
  <path d="M27.35,88.34c-1.61,0-1.9,1.63-2.11,2.78c-0.21,1.15-1.65,8.26-1.65,8.26l12.25,2.52l6.35-2.93 c0,0-1.06-7.11-1.27-8.33c-0.21-1.22-0.63-2.17-2.18-2.24C37.21,88.34,27.35,88.34,27.35,88.34z" fill="#2584FF"/>
  <path d="M23,102.45c-0.21,1.49,1.22,2.77,2.14,2.81s14.43,0.15,15.55,0.1c1.15-0.06,2.35-0.89,2.11-2.44 c-0.26-1.68-0.63-3.93-0.63-3.93L23.66,99C23.66,99,23.17,101.3,23,102.45z" fill="#014FAB"/>
  <path d="M11.25,53.73c-1.58,0-1.85,1.63-2.06,2.78c-0.21,1.15-1.61,8.26-1.61,8.26l11.96,2.52l6.2-2.93 c0,0-1.04-7.11-1.24-8.33c-0.21-1.22-0.62-2.17-2.12-2.24C20.87,53.73,11.25,53.73,11.25,53.73z" fill="#A47ECC"/>
  <path d="M7,67.83c-0.21,1.49,1.19,2.77,2.09,2.81c0.9,0.03,14.09,0.15,15.18,0.1 c1.12-0.06,2.3-0.89,2.06-2.44c-0.25-1.68-0.61-3.93-0.61-3.93L7.65,64.39C7.65,64.39,7.16,66.68,7,67.83z" fill="#7A56BF"/>
  <path d="M23.83,19.62c-1.58,0-1.85,1.63-2.06,2.78c-0.21,1.15-1.61,8.26-1.61,8.26l11.96,2.52l6.2-2.93 c0,0-1.04-7.11-1.24-8.33c-0.21-1.22-0.62-2.17-2.12-2.24C33.46,19.63,23.83,19.62,23.83,19.62z" fill="#F47DAA"/>
  <path d="M19.59,33.73c-0.21,1.49,1.19,2.77,2.09,2.81c0.9,0.03,14.09,0.15,15.18,0.1 c1.12-0.06,2.3-0.89,2.06-2.44c-0.25-1.68-0.61-3.93-0.61-3.93l-18.08,0.02C20.24,30.29,19.75,32.58,19.59,33.73z" fill="#EA4889"/>
  <path d="M79.59,99.43c-5.12,1.68-10.5,2.47-15.77,2.21c-4.44-0.21-9.45-1.15-14.48-2.91l-2.27,4.22 c5.63,2.04,10.68,2.73,15.66,2.96c0.7,0.03,1.41,0.05,2.12,0.05c5.31,0,11.55-1.08,16.67-2.84L79.59,99.43z" fill="#9B9B9B"/>
  <path d="M101.39,22.04C89.95,10.24,74.09,6.13,64.03,6.23c-12.87,0.1-26.59,6.14-35.82,15.74 c-9.23,9.61-13.86,22.37-13.4,36.92c0.73,22.88,14.75,36.83,29.81,43.07l2.52-4.04C33.05,92.29,19.5,80.02,18.82,58.75 c-0.43-13.44,3.82-25.21,12.28-34.02C41.27,14.15,54.8,10.3,64.07,10.23c9.3-0.1,23.89,3.7,34.46,14.6 c8.28,8.54,12.39,19.94,11.88,32.96c-0.51,12.93-5.36,23.97-14.04,31.93c-4.22,3.86-9.22,6.9-14.57,8.95l1.69,3.81 c5.68-2.23,11.11-5.69,15.59-9.81c9.48-8.69,14.78-20.7,15.33-34.72C114.95,43.8,110.46,31.39,101.39,22.04z" fill="#C9C9C9"/>
  <rect height="35.15" fill="#C8C8C8" width="3" x="62.36" y="7.57"/>
  <rect height="3" fill="#C8C8C8" transform="matrix(0.6719 -0.7406 0.7406 0.6719 -20.4468 66.5248)" width="92.4" x="18.66" y="54.84"/>
  <rect height="96.56" fill="#C8C8C8" transform="matrix(0.7055 -0.7087 0.7087 0.7055 -21.0507 62.3337)" width="3" x="62.98" y="8.21"/>
  <rect height="96.93" fill="#C8C8C8" transform="matrix(1.596935e-03 -1 1 1.596935e-03 6.8724 121.8898)" width="3" x="62.98" y="9.04"/>
  <polygon points="74.39,31.5 63.89,8.19 66.62,6.95 75.93,27.61 95.64,19.35 96.8,22.11 " fill="#C8C8C8"/>
  <polygon points="111.49,57.68 90.03,46.78 95.37,21.35 98.31,21.97 93.43,45.15 112.85,55 " fill="#C8C8C8"/>
  <polygon points="96.31,89.69 90.61,67.35 110.55,56.49 111.98,59.13 94.09,68.87 99.22,88.95 " fill="#C8C8C8"/>
  <path d="M34.35,90.61l-2.91-0.73c0.13-0.52,3.67-15.25,4.68-19.46L15.91,59.36l1.44-2.63l22.22,12.16 l-0.27,1.12C39.11,70.82,34.5,90,34.35,90.61z" fill="#C8C8C8"/>
  <polygon points="18.46,57.8 16.97,55.19 35.11,44.81 28.37,24.61 31.22,23.66 38.73,46.19 " fill="#C8C8C8"/>
  <polygon points="54.13,31.9 30.84,23.54 31.85,20.71 52.54,28.14 61.72,7.88 64.45,9.12 " fill="#C8C8C8"/>
  <rect height="3" fill="#C8C8C8" transform="matrix(0.9439 -0.3304 0.3304 0.9439 -26.5575 19.4297)" width="22.97" x="32.4" y="86.35"/>
  <rect height="23.41" fill="#C8C8C8" transform="matrix(0.2611 -0.9653 0.9653 0.2611 -20.79 146.1364)" width="3" x="83.57" y="74.95"/>
  <polygon points="63.95,105.91 53.44,88.39 56.01,86.85 64.08,100.29 72.83,87.1 75.33,88.76 " fill="#9B9B9B"/>
  <rect height="30.56" fill="#9B9B9B" width="3.13" x="62.38" y="69.19"/>
  <path d="M65.29,85.79c-0.41,0-0.83-0.01-1.24-0.03c-11.04-0.53-27.69-8.18-28.29-27.1 c-0.27-8.43,2.42-15.84,7.78-21.41c5.36-5.58,13.32-9.08,20.78-9.14l0,0c6.05-0.02,14.82,2.32,21.41,9.12 c5.31,5.48,7.94,12.75,7.62,21.03c-0.32,8.12-3.37,15.05-8.82,20.05C79.35,83.04,72.24,85.79,65.29,85.79z M64.34,31.13 c-5.23,0.04-12.86,2.22-18.61,8.2c-4.78,4.98-7.18,11.62-6.94,19.2c0.54,16.89,15.47,23.72,25.38,24.19 c6.56,0.3,13.39-2.18,18.29-6.67c4.85-4.45,7.57-10.65,7.85-17.94c0.29-7.43-2.05-13.93-6.78-18.8 c-5.87-6.05-13.89-8.19-19.04-8.19C64.44,31.13,64.39,31.13,64.34,31.13L64.34,31.13z" fill="#9B9B9B"/>
  <path d="M65.7,102.56c-0.66,0-1.32-0.02-1.98-0.05c-17.86-0.85-44.78-13.21-45.76-43.8 c-0.44-13.64,3.9-25.61,12.55-34.6C40.84,13.35,54.62,9.44,64.07,9.36l0,0c9.42-0.04,24.29,3.76,35.02,14.83 c8.48,8.75,12.69,20.38,12.17,33.62c-0.52,13.14-5.48,24.39-14.36,32.53C88.47,98.07,76.94,102.56,65.7,102.56z M64.09,11.76 c-8.96,0.07-22.03,3.79-31.85,14.02c-8.19,8.52-12.29,19.88-11.88,32.86c0.92,28.95,26.5,40.67,43.47,41.48 c11.22,0.53,22.98-3.78,31.45-11.54c8.39-7.7,13.09-18.37,13.58-30.85c0.49-12.57-3.48-23.59-11.5-31.86 C87.17,15.34,73.08,11.65,64.09,11.76L64.09,11.76z" fill="#9B9B9B"/>
  <polygon points="45.33,117.67 59.6,86 62.74,69.99 59.26,67.43 52.18,88.66 31.99,119.64 " fill="#7956C0"/>
  <path d="M65.06,70.57c0.12,1.86,4.41,16.13,4.41,16.13l15.78,31.33l11.83,0.35l-22.51-32.6l-6.85-19.84 L65.06,70.57z" fill="#7956C0"/>
  <path d="M30.83,116.28c0.81-0.93,20.3-31.21,20.3-31.21l6.96-19.14l2.9,3.48L57.05,86l-21.93,32.83 l-4.52,0.23L30.83,116.28z" fill="#8F7CF3"/>
  <polygon points="66.8,68.82 71.9,86.11 94.06,119.18 99.28,118.71 77.01,84.95 69.81,66.27 " fill="#8F7CF3"/>
  <path d="M24.1,116.74c-0.89,0.89-0.58,6.73,0.12,6.96c0.35,0.12,19.84,0.25,40.03,0.35 c20.19,0.1,41.07,0.17,41.42,0c0.7-0.35,0.58-6.5,0-7.08c-0.29-0.29-20.77-0.35-41.19-0.46C44.32,116.4,24.57,116.28,24.1,116.74z" fill="#8F7CF3"/>
  <polygon points="46.85,57.41 52.31,61.78 52.4,69 59.12,68.33 64.08,73.29 68.79,68.67 76.18,68.42 75.51,61.61 79.88,57.57 74.75,52.03 75.01,45.14 68.2,45.72 63.91,40.6 59.12,45.98 52.06,44.29 52.31,52.03 " fill="#C8C8C8"/>
  <polygon points="52.07,57.29 55.87,60.33 55.92,65.35 60.59,64.88 64.04,68.33 67.3,65.12 72.44,64.94 71.97,60.21 75.01,57.4 71.45,53.55 71.62,48.76 66.89,49.16 63.92,45.6 60.59,49.34 55.69,48.17 55.87,53.55 " fill="#F1EDEC"/>
</svg>

<svg viewBox="0 0 128 128" xmlns="http://www.w3.org/2000/svg">
  <defs/>
  <path d="M58.48,3.85 C56.92,3.85 56.65,5.48 56.44,6.63 C56.23,7.78 54.85,14.89 54.85,14.89 L66.71,17.41 L72.86,14.48 C72.86,14.48 71.83,7.37 71.63,6.15 C71.43,4.93 71.02,3.98 69.52,3.91 C68.02,3.85 58.48,3.85 58.48,3.85 Z" fill="#FC2B26"/>
  <path d="M54.27,17.95 C54.06,19.44 55.45,20.72 56.34,20.76 C57.23,20.79 70.31,20.91 71.39,20.86 C72.5,20.8 73.67,19.97 73.44,18.42 C73.19,16.74 72.83,14.49 72.83,14.49 L54.9,14.51 C54.91,14.51 54.43,16.8 54.27,17.95 Z" fill="#DA0A26"/>
  <path d="M92.58,19.27 C91,19.27 90.73,20.9 90.52,22.05 C90.31,23.2 88.91,30.31 88.91,30.31 L100.87,32.83 L107.07,29.9 C107.07,29.9 106.03,22.79 105.83,21.57 C105.62,20.35 105.21,19.4 103.71,19.33 C102.21,19.26 92.58,19.27 92.58,19.27 Z" fill="#FF8E05"/>
  <path d="M88.34,33.38 C88.13,34.87 89.53,36.15 90.43,36.19 C91.33,36.22 104.52,36.34 105.61,36.29 C106.73,36.23 107.91,35.4 107.67,33.85 C107.42,32.17 107.06,29.92 107.06,29.92 L88.98,29.94 C88.98,29.94 88.5,32.23 88.34,33.38 Z" fill="#FF4C1C"/>
  <path d="M106.23,53.35 C104.65,53.35 104.38,54.98 104.17,56.13 C103.96,57.28 102.56,64.39 102.56,64.39 L114.52,66.91 L120.72,63.98 C120.72,63.98 119.68,56.87 119.48,55.65 C119.27,54.43 118.86,53.48 117.36,53.41 C115.85,53.36 106.23,53.35 106.23,53.35 Z" fill="#FFD61C"/>
  <path d="M101.99,67.46 C101.78,68.95 103.18,70.23 104.08,70.27 C104.98,70.31 118.17,70.42 119.26,70.37 C120.38,70.31 121.56,69.48 121.32,67.93 C121.07,66.25 120.71,64 120.71,64 L102.63,64.02 C102.63,64.01 102.15,66.31 101.99,67.46 Z" fill="#FFA42D"/>
  <path d="M91.36,88.06 C89.78,88.06 89.51,89.69 89.3,90.84 C89.1,92 87.7,99.1 87.7,99.1 L99.66,101.62 L105.86,98.69 C105.86,98.69 104.82,91.58 104.62,90.36 C104.41,89.14 104,88.19 102.5,88.12 C100.98,88.06 91.36,88.06 91.36,88.06 Z" fill="#02AD41"/>
  <path d="M87.12,102.17 C86.91,103.66 88.31,104.94 89.21,104.98 C90.11,105.02 103.3,105.13 104.39,105.08 C105.51,105.02 106.69,104.19 106.45,102.64 C106.2,100.96 105.84,98.71 105.84,98.71 L87.76,98.73 C87.76,98.72 87.28,101.02 87.12,102.17 Z" fill="#2F7C31"/>
  <path d="M58.68,98.34 C57.1,98.34 56.83,99.97 56.62,101.12 C56.41,102.27 55.01,109.38 55.01,109.38 L66.97,111.9 L73.17,108.97 C73.17,108.97 72.13,101.86 71.93,100.64 C71.73,99.42 71.31,98.47 69.81,98.4 C68.3,98.34 58.68,98.34 58.68,98.34 Z" fill="#69A5AD"/>
  <path d="M54.43,112.45 C54.22,113.94 55.62,115.22 56.52,115.26 C57.42,115.3 70.61,115.41 71.7,115.36 C72.82,115.3 74,114.47 73.76,112.92 C73.51,111.24 73.15,108.99 73.15,108.99 L55.08,109 C55.08,109 54.59,111.3 54.43,112.45 Z" fill="#41727A"/>
  <path d="M27.35,88.34 C25.74,88.34 25.45,89.97 25.24,91.12 C25.03,92.27 23.59,99.38 23.59,99.38 L35.84,101.9 L42.19,98.97 C42.19,98.97 41.13,91.86 40.92,90.64 C40.71,89.42 40.29,88.47 38.74,88.4 C37.21,88.34 27.35,88.34 27.35,88.34 Z" fill="#2584FF"/>
  <path d="M23,102.45 C22.79,103.94 24.22,105.22 25.14,105.26 C26.06,105.3 39.57,105.41 40.69,105.36 C41.84,105.3 43.04,104.47 42.8,102.92 C42.54,101.24 42.17,98.99 42.17,98.99 L23.66,99 C23.66,99 23.17,101.3 23,102.45 Z" fill="#014FAB"/>
  <path d="M11.25,53.73 C9.67,53.73 9.4,55.36 9.19,56.51 C8.98,57.66 7.58,64.77 7.58,64.77 L19.54,67.29 L25.74,64.36 C25.74,64.36 24.7,57.25 24.5,56.03 C24.29,54.81 23.88,53.86 22.38,53.79 C20.87,53.73 11.25,53.73 11.25,53.73 Z" fill="#A47ECC"/>
  <path d="M7,67.83 C6.79,69.32 8.19,70.6 9.09,70.64 C9.99,70.67 23.18,70.79 24.27,70.74 C25.39,70.68 26.57,69.85 26.33,68.3 C26.08,66.62 25.72,64.37 25.72,64.37 L7.65,64.39 C7.65,64.39 7.16,66.68 7,67.83 Z" fill="#7A56BF"/>
  <path d="M23.83,19.62 C22.25,19.62 21.98,21.25 21.77,22.4 C21.56,23.55 20.16,30.66 20.16,30.66 L32.12,33.18 L38.32,30.25 C38.32,30.25 37.28,23.14 37.08,21.92 C36.87,20.7 36.46,19.75 34.96,19.68 C33.46,19.63 23.83,19.62 23.83,19.62 Z" fill="#F47DAA"/>
  <path d="M19.59,33.73 C19.38,35.22 20.78,36.5 21.68,36.54 C22.58,36.57 35.77,36.69 36.86,36.64 C37.98,36.58 39.16,35.75 38.92,34.2 C38.67,32.52 38.31,30.27 38.31,30.27 L20.23,30.29 C20.24,30.29 19.75,32.58 19.59,33.73 Z" fill="#EA4889"/>
  <path d="M79.59,99.43 C74.47,101.11 69.09,101.9 63.82,101.64 C59.38,101.43 54.37,100.49 49.34,98.73 L47.07,102.95 C52.7,104.99 57.75,105.68 62.73,105.91 C63.43,105.94 64.14,105.96 64.85,105.96 C70.16,105.96 76.4,104.88 81.52,103.12 L79.59,99.43 Z" fill="#9B9B9B"/>
  <path d="M101.39,22.04 C89.95,10.24 74.09,6.13 64.03,6.23 C51.16,6.33 37.44,12.37 28.21,21.97 C18.98,31.58 14.35,44.34 14.81,58.89 C15.54,81.77 29.56,95.72 44.62,101.96 L47.14,97.92 C33.05,92.29 19.5,80.02 18.82,58.75 C18.39,45.31 22.64,33.54 31.1,24.73 C41.27,14.15 54.8,10.3 64.07,10.23 C73.37,10.13 87.96,13.93 98.53,24.83 C106.81,33.37 110.92,44.77 110.41,57.79 C109.9,70.72 105.05,81.76 96.37,89.72 C92.15,93.58 87.15,96.62 81.8,98.67 L83.49,102.48 C89.17,100.25 94.6,96.79 99.08,92.67 C108.56,83.98 113.86,71.97 114.41,57.95 C114.95,43.8 110.46,31.39 101.39,22.04 Z" fill="#C9C9C9"/>
  <path d="M62.36,7.57 L65.36,7.57 L65.36,42.72 L62.36,42.72 L62.36,7.57 Z" fill="#C8C8C8"/>
  <path d="M32.705,89.552 L94.789,21.121 L97.011,23.136 L34.927,91.568 L32.705,89.552 Z" fill="#C8C8C8"/>
  <path d="M29.2,23.492 L31.317,21.366 L99.749,89.489 L97.632,91.615 L29.2,23.492 Z" fill="#C8C8C8"/>
  <path d="M16.013,58.924 L16.018,55.924 L112.948,56.079 L112.943,59.079 L16.013,58.924 Z" fill="#C8C8C8"/>
  <path d="M74.39,31.5 L63.89,8.19 L66.62,6.95 L75.93,27.61 L95.64,19.35 L96.8,22.11 Z" fill="#C8C8C8"/>
  <path d="M111.49,57.68 L90.03,46.78 L95.37,21.35 L98.31,21.97 L93.43,45.15 L112.85,55 Z" fill="#C8C8C8"/>
  <path d="M96.31,89.69 L90.61,67.35 L110.55,56.49 L111.98,59.13 L94.09,68.87 L99.22,88.95 Z" fill="#C8C8C8"/>
  <path d="M34.35,90.61 L31.44,89.88 C31.57,89.36 35.11,74.63 36.12,70.42 L15.91,59.36 L17.35,56.73 L39.57,68.89 L39.3,70.01 C39.11,70.82 34.5,90 34.35,90.61 Z" fill="#C8C8C8"/>
  <path d="M18.46,57.8 L16.97,55.19 L35.11,44.81 L28.37,24.61 L31.22,23.66 L38.73,46.19 Z" fill="#C8C8C8"/>
  <path d="M54.13,31.9 L30.84,23.54 L31.85,20.71 L52.54,28.14 L61.72,7.88 L64.45,9.12 Z" fill="#C8C8C8"/>
  <path d="M32.555,90.23 L54.236,82.641 L55.227,85.473 L33.546,93.062 L32.555,90.23 Z" fill="#C8C8C8"/>
  <path d="M73.379,85.036 L74.163,82.14 L96.76,88.252 L95.977,91.148 L73.379,85.036 Z" fill="#C8C8C8"/>
  <path d="M63.95,105.91 L53.44,88.39 L56.01,86.85 L64.08,100.29 L72.83,87.1 L75.33,88.76 Z" fill="#9B9B9B"/>
  <path d="M62.38,69.19 L65.51,69.19 L65.51,99.75 L62.38,99.75 L62.38,69.19 Z" fill="#9B9B9B"/>
  <path d="M65.29,85.79 C64.88,85.79 64.46,85.78 64.05,85.76 C53.01,85.23 36.36,77.58 35.76,58.66 C35.49,50.23 38.18,42.82 43.54,37.25 C48.9,31.67 56.86,28.17 64.32,28.11 L64.32,28.11 C70.37,28.09 79.14,30.43 85.73,37.23 C91.04,42.71 93.67,49.98 93.35,58.26 C93.03,66.38 89.98,73.31 84.53,78.31 C79.35,83.04 72.24,85.79 65.29,85.79 Z M64.34,31.13 C59.11,31.17 51.48,33.35 45.73,39.33 C40.95,44.31 38.55,50.95 38.79,58.53 C39.33,75.42 54.26,82.25 64.17,82.72 C70.73,83.02 77.56,80.54 82.46,76.05 C87.31,71.6 90.03,65.4 90.31,58.11 C90.6,50.68 88.26,44.18 83.53,39.31 C77.66,33.26 69.64,31.12 64.49,31.12 C64.44,31.13 64.39,31.13 64.34,31.13 L64.34,31.13 Z" fill="#9B9B9B"/>
  <path d="M65.7,102.56 C65.04,102.56 64.38,102.54 63.72,102.51 C45.86,101.66 18.94,89.3 17.96,58.71 C17.52,45.07 21.86,33.1 30.51,24.11 C40.84,13.35 54.62,9.44 64.07,9.36 L64.07,9.36 C73.49,9.32 88.36,13.12 99.09,24.19 C107.57,32.94 111.78,44.57 111.26,57.81 C110.74,70.95 105.78,82.2 96.9,90.34 C88.47,98.07 76.94,102.56 65.7,102.56 Z M64.09,11.76 C55.13,11.83 42.06,15.55 32.24,25.78 C24.05,34.3 19.95,45.66 20.36,58.64 C21.28,87.59 46.86,99.31 63.83,100.12 C75.05,100.65 86.81,96.34 95.28,88.58 C103.67,80.88 108.37,70.21 108.86,57.73 C109.35,45.16 105.38,34.14 97.36,25.87 C87.17,15.34 73.08,11.65 64.09,11.76 L64.09,11.76 Z" fill="#9B9B9B"/>
  <path d="M45.33,117.67 L59.6,86 L62.74,69.99 L59.26,67.43 L52.18,88.66 L31.99,119.64 Z" fill="#7956C0"/>
  <path d="M65.06,70.57 C65.18,72.43 69.47,86.7 69.47,86.7 L85.25,118.03 L97.08,118.38 L74.57,85.78 L67.72,65.94 L65.06,70.57 Z" fill="#7956C0"/>
  <path d="M30.83,116.28 C31.64,115.35 51.13,85.07 51.13,85.07 L58.09,65.93 L60.99,69.41 L57.05,86 L35.12,118.83 L30.6,119.06 L30.83,116.28 Z" fill="#8F7CF3"/>
  <path d="M66.8,68.82 L71.9,86.11 L94.06,119.18 L99.28,118.71 L77.01,84.95 L69.81,66.27 Z" fill="#8F7CF3"/>
  <path d="M24.1,116.74 C23.21,117.63 23.52,123.47 24.22,123.7 C24.57,123.82 44.06,123.95 64.25,124.05 C84.44,124.15 105.32,124.22 105.67,124.05 C106.37,123.7 106.25,117.55 105.67,116.97 C105.38,116.68 84.9,116.62 64.48,116.51 C44.32,116.4 24.57,116.28 24.1,116.74 Z" fill="#8F7CF3"/>
  <path d="M46.85,57.41 L52.31,61.78 L52.4,69 L59.12,68.33 L64.08,73.29 L68.79,68.67 L76.18,68.42 L75.51,61.61 L79.88,57.57 L74.75,52.03 L75.01,45.14 L68.2,45.72 L63.91,40.6 L59.12,45.98 L52.06,44.29 L52.31,52.03 Z" fill="#C8C8C8"/>
  <path d="M52.07,57.29 L55.87,60.33 L55.92,65.35 L60.59,64.88 L64.04,68.33 L67.3,65.12 L72.44,64.94 L71.97,60.21 L75.01,57.4 L71.45,53.55 L71.62,48.76 L66.89,49.16 L63.92,45.6 L60.59,49.34 L55.69,48.17 L55.87,53.55 Z" fill="#F1EDEC"/>
</svg>
